X:86
T: ICH HATT EINEN KAMERADEN
N: B0573
O: Europa, Mitteleuropa, Deutschland
R: Staende -, Soldaten - Lied, Tod
M: 4/4
L: 1/8
K: G
D2 | G2BBB2A2 | G4D2
GA | B2d2d2c2 | B4z2
GA | B2B2B2A2 | B3cd2
cB | A2A2A2AG | A3Bc2
d2 | B2B2A2A2 | G4
A4 | B2d2A2AB | G4z2

@@@ Tune index: 2304
